X: 22936
T: Larry Reynolds' Fancy
R: jig
M: 6/8
K: Fmajor
cAF FAc|f2a gfg|afc dfd|cFG AGG|
cAF FAc|f2a gfg|afc dfd|1 cAF F2d:|2 cAF F2b||
agf fcA|cdc cga|bgg gfg|agg gec|
agf fcA|cdc cga|bag agf|1 cde f2g:|2 cde f3||

